X:150
T:Lafferty's
T:Glen of Aherlow, The
R:reel
C:Sean Ryan
Z:Transcribed by Dave Marshall
M:C|
K:Edor
|:B2AF BFAF|~E3F EDB,D|B2AF BFAF|DFAF FE~E2|
B2AF BFAF|~E3F EDB,A,|B,~E3 DEFA|B2AF FE~E2:|
|:e~B3 egfe|f~d3 Adfd|e~B3 egfe|dBAF FE~E2|
e~B3 egfe|f~d3 Adfd|~B3d egfe|dBAF FE~E2:|
